X:1237
T:"The Twin Brothers"  (reel)     1237
C:after Chief  F. O'Neill
N:Replaced fermata with Fine Command
N:Replaced plain Segno with D.S.al Fine command
B:O'Neill's Music Of Ireland (The 1850) Lyon & Healy, Chicago, 1903 edition
Z:FROM O'NEILL'S TO NOTEWORTHY, FROM NOTEWORTHY TO ABC, MIDI AND .TXT BY VINCE
BRENNAN July 2003 (HTTP://WWW.SOSYOURMOM.COM)
I:abc2nwc
M:C|
L:1/8
K:G
(3(GAB)"^Segno"|c2BG AGEG|DGBG AGEG|BcAB G2Bc|dBAc BG G2"^Fine":|
 TRg2(gf) g2(dg)|egdg egde| TRg2(gf) g2~d2|ea {b}ag ea {ba2)|
fggf g2(dg)|egdg egde|g2ge a2ag|b2ba gfe"^D. S. al Fine"d|]


